X:690
T: Remembering Reavy (with piano acc.)
C: BB
R: reel
Q: 1/8=350
M: 4/4
L: 1/8
V: 1 program 1 110 %fiddle
V: 2 volume=70 clef=bass m=D program 1 01
K: Gmix
[V:1] "G"G2 dc BcdB|"F"F2 cB ABcA|"G"G2 dc Bcde|"F"fgag "Dm7"fdcA|
[V:2] G,,2[G2B2D2]D,2[G2B2D2]|F,,2[A2C2F2]C,2[A2C2F2]|G,,2[G2B2D2]D,2[G2B2D2]|\
F,,2[A2C2F2]D,2[A2C2F2]|
%
[V:1] "G"G2 dc BcdB|"F"F2 cB ABcA|"G"G2 dc BcdB|"D7"cA^FA "G"BG G2 :|
[V:2] G,,2[G2B2D2]D,2[G2B2D2]|F,,2[A2C2F2]C,2[A2C2F2]|G,,2[G2B2D2]D,2[G2B2D2]|\
D,2[A2C2^F2][G,,4B,4D,4]:|
%
[V:1] "G"d2 Bd gdBd|"F"c2 Ac fcAc|"G"d2 Bd gaba|"G"gd^cd "F"=cAFA|
[V:2] G,,2[G2B2D2]D,2[G2B2D2]|F,,2[A2C2F2]C,2[A2C2F2]|G,,2[G2B2D2]D,2[G2B2D2]|\
G,,2[G2B2D2]F,,2[A2C2F2]|
%
[V:1] "G"d2 Bd gdBd|"F"c2 Ac fcAc|"G"Bd (3d^cd "F"=cf (3fef|"D7"cA^FA "G"BG G2 :|
[V:2] G,,2[G2B2D2]D,2[G2B2D2]|F,,2[A2C2F2]C,2[A2C2F2]|G,,2[G2B2D2]F,,2[A2C2F2]|
D,2[A2C2^F2][G,,4B,4D,4] :|

%%%%%%%%%%%%%%%%%%%%%%%%%%%%%%%%%%%%%%%%%%%

